X:208
T:Loch Ordie
C:James MacIntosh, Dunkeld
B:A Collection of Reels, Strathspeys, etc (1930)
Z:Nigel Gatherer
R:reel
M:4/4
L:1/8
K:Gm
D|DGG^F G2 Bc|d2 cB AFFA|DGG^F GBdg|fdcA BGG:|
d|g2 dg bgdg|f2 cf afcf|g2 dg bgdg|fdcA dGGd|
g2 dg bgdg|f2 cf afcf|gbag fgdg|fdcA BG G|]
<end>
<start>
